polaris-icons/icons/new-icons/AddCodeMajor.svg

<svg width="20" height="20" viewBox="0 0 20 20" fill="none" xmlns="http://www.w3.org/2000/svg">
<path d="M7.03033 7.28033C7.32322 6.98744 7.32322 6.51256 7.03033 6.21967C6.73744 5.92678 6.26256 5.92678 5.96967 6.21967L2.71967 9.46967C2.42678 9.76256 2.42678 10.2374 2.71967 10.5303L5.96967 13.7803C6.26256 14.0732 6.73744 14.0732 7.03033 13.7803C7.32322 13.4874 7.32322 13.0126 7.03033 12.7197L4.31066 10L7.03033 7.28033Z" fill="#4A4A4A"/>
<path d="M12.9697 13.7803C13.2626 14.0732 13.7374 14.0732 14.0303 13.7803L17.2803 10.5303C17.421 10.3897 17.5 10.1989 17.5 10C17.5 9.80109 17.421 9.61032 17.2803 9.46967L14.0303 6.21967C13.7374 5.92678 13.2626 5.92678 12.9697 6.21967C12.6768 6.51256 12.6768 6.98744 12.9697 7.28033L15.6893 10L12.9697 12.7197C12.6768 13.0126 12.6768 13.4874 12.9697 13.7803Z" fill="#4A4A4A"/>
<path d="M10 6.75C10.4142 6.75 10.75 7.08579 10.75 7.5V9.25H12.5C12.9142 9.25 13.25 9.58579 13.25 10C13.25 10.4142 12.9142 10.75 12.5 10.75H10.75V12.5C10.75 12.9142 10.4142 13.25 10 13.25C9.58579 13.25 9.25 12.9142 9.25 12.5V10.75H7.5C7.08578 10.75 6.75 10.4142 6.75 10C6.75 9.58579 7.08578 9.25 7.5 9.25H9.25V7.5C9.25 7.08579 9.58579 6.75 10 6.75Z" fill="#4A4A4A"/>
</svg>

<svg viewBox="0 0 20 20" xmlns="http://www.w3.org/2000/svg"><path d="M7.03 7.28a.75.75 0 0 0-1.06-1.06l-3.25 3.25a.75.75 0 0 0 0 1.06l3.25 3.25a.75.75 0 0 0 1.06-1.06l-2.72-2.72 2.72-2.72Z" fill="#5C5F62"/><path d="M12.97 13.78a.75.75 0 0 0 1.06 0l3.25-3.25a.75.75 0 0 0 0-1.06l-3.25-3.25a.75.75 0 1 0-1.06 1.06l2.72 2.72-2.72 2.72a.75.75 0 0 0 0 1.06Z" fill="#5C5F62"/><path d="M10 6.75a.75.75 0 0 1 .75.75v1.75h1.75a.75.75 0 0 1 0 1.5h-1.75v1.75a.75.75 0 0 1-1.5 0v-1.75h-1.75a.75.75 0 0 1 0-1.5h1.75v-1.75a.75.75 0 0 1 .75-.75Z" fill="#5C5F62"/></svg>
